X: 0773
T: SPEED THE PLOUGH
B: Oliver Ditson "The Boston Collection of Instrumental Music" 1910 p.77 #3
F: http://conquest.imslp.info/files/imglnks/usimg/8/8f/IMSLP175643-PMLP309456-bostoncollection00bost_bw.pdf
%: 2012 John Chambers <jc:trillian.mit.edu>
M: 2/4
L: 1/16
K: A
|:\
ABcd efec | eaec efec | dedB cdcA | FBBA GBBc |\
ABcd efec  | eaec efec | dedB cdcA | FBAG A2z2 :|
|:\
aAce aece | aAgA fAeA | dedB cdcA |  FBBA GBBc |\
aAce aece | fdBf ecAc | dedB cdcA | FBAG A2z2 :|

%%sep 1 1 500
%%sep 1 1 500
